categories/32/applications-education.svg

<?xml version="1.0" encoding="UTF-8" standalone="no"?>
<svg
  width="32"
  height="32"
  version="1.1"
  viewBox="0 0 32 32"
  id="svg22"
  xmlns:xlink="http://www.w3.org/1999/xlink"
  xmlns="http://www.w3.org/2000/svg"
  xmlns:svg="http://www.w3.org/2000/svg">
   <style
   type="text/css"
   id="current-color-scheme">
  .ColorScheme-Highlight {
        color:#3daee9;
      }
      </style>
 <defs
   id="defs12">
  <linearGradient
    id="linearGradient7">
   <stop
     style="stop-color:#141618;stop-opacity:1;"
     offset="0"
     id="stop7" />
   <stop
     style="stop-color:#686868;stop-opacity:1;"
     offset="0.53189832"
     id="stop9" />
   <stop
     style="stop-color:#31363b;stop-opacity:1;"
     offset="1"
     id="stop8" />
  </linearGradient>
  <linearGradient
    xlink:href="#linearGradient3487"
    id="linearGradient3403"
    gradientUnits="userSpaceOnUse"
    x1="6.9491749"
    y1="4.5549412"
    x2="11.215498"
    y2="59.052471" />
  <linearGradient
    id="linearGradient3487">
   <stop
     style="stop-color:#32373c;stop-opacity:1"
     offset="0"
     id="stop3481" />
   <stop
     id="stop3483"
     offset="0.36804965"
     style="stop-color:#1a1a1a;stop-opacity:1" />
   <stop
     style="stop-color:#31363b;stop-opacity:1"
     offset="1"
     id="stop3485" />
  </linearGradient>
  <linearGradient
    xlink:href="#linearGradient20604"
    id="linearGradient20558"
    gradientUnits="userSpaceOnUse"
    x1="25.802212"
    y1="20.373846"
    x2="25.111048"
    y2="58.912758" />
  <linearGradient
    id="linearGradient20604">
   <stop
     id="stop20598"
     offset="0"
     style="stop-color:#3d3d3d;stop-opacity:1" />
   <stop
     style="stop-color:#000000;stop-opacity:1"
     offset="0.61772454"
     id="stop20600" />
   <stop
     id="stop20602"
     offset="1"
     style="stop-color:#3d3d3d;stop-opacity:1" />
  </linearGradient>
  <filter
    style="color-interpolation-filters:sRGB"
    id="filter20720"
    x="-0.017154225"
    y="-0.016541574"
    width="1.0343069"
    height="1.0330831">
   <feGaussianBlur
     stdDeviation="0.14745661"
     id="feGaussianBlur20722" />
  </filter>
  <linearGradient
    xlink:href="#linearGradient7"
    id="linearGradient8"
    x1="17"
    y1="30"
    x2="17"
    y2="2"
    gradientUnits="userSpaceOnUse" />
  <linearGradient
    xlink:href="#linearGradient4273"
    id="linearGradient3085"
    y1="543.79797"
    x1="434.57144"
    y2="503.798"
    gradientUnits="userSpaceOnUse"
    x2="384.57144"
    gradientTransform="matrix(0.66666621,0,0,0.70000019,-256.38078,-350.65872)" />
  <linearGradient
    id="linearGradient4273">
   <stop
     style="stop-color:#343b40"
     id="stop4275" />
   <stop
     offset="1"
     style="stop-color:#555e63"
     id="stop4277" />
  </linearGradient>
  <linearGradient
    xlink:href="#linearGradient4152-0"
    id="linearGradient3087"
    y1="43.999973"
    y2="4.1917577"
    gradientUnits="userSpaceOnUse"
    x2="-1.9607389"
    gradientTransform="matrix(0.66666621,0,0,0.69999959,0,-0.8)" />
  <linearGradient
    id="linearGradient4152-0">
   <stop
     style="stop-color:#bd8d48"
     id="stop4154-0" />
   <stop
     offset="1"
     style="stop-color:#e8b971"
     id="stop4156-8" />
  </linearGradient>
 </defs>
 <rect
   width="25.341169"
   x="4.0612292"
   y="2.0000346"
   height="26.090137"
   style="display:inline;fill:url(#linearGradient3085);stroke-width:0.666666"
   id="rect4567"
   rx="0"
   ry="0" />
 <path
   id="rect4778"
   style="display:inline;fill:url(#linearGradient3087);stroke-width:0.666666"
   d="M 4.0612294,4 H 28.287109 v 23.914062 l -24.2258796,0.008 V 30.008 l 24.8308416,-0.0076 1.395038,-1.588315 V 3.4003906 L 28.953125,2 H 4.0612294 Z" />
 <path
   id="rect4553"
   style="color:#000000;fill:#aa7f41;fill-opacity:0.498039;stroke-width:0.666666"
   d="M 4.0605469 4 L 4.0605469 4.9550781 L 27.378906 4.9550781 L 27.378906 27 L 4.0605469 27 L 4.0605469 27.914062 L 28.287109 27.914062 L 28.287109 4 L 4.0605469 4 z " />
 <rect
   width="3.9999599"
   x="19.000011"
   y="26.000034"
   height="0.99998999"
   class="ColorScheme-Highlight"
   fill="currentColor"
   id="rect4568" />
 <rect
   width="3.9999881"
   x="23.999981"
   y="26.000034"
   height="1.00001"
   style="color:#000000;fill:#d6d6d6;stroke-width:0.666666"
   id="rect4570" />
 <path
   style="display:inline;mix-blend-mode:normal;fill:url(#linearGradient3403);fill-opacity:1;stroke:url(#linearGradient20558);stroke-width:1.16242;stroke-linecap:butt;stroke-linejoin:round;stroke-miterlimit:4;stroke-dasharray:none;stroke-opacity:1;filter:url(#filter20720)"
   d="M 5.4025265,3.5689324 V 60.09958 H 57.895271 l 2.018951,-2.018952 c 0,0 -24.171977,0.621351 -33.141048,-4.285423 C 16.257548,48.042344 11.459382,3.5689324 11.459382,3.5689324 Z"
   id="path1686"
   transform="matrix(0.49530655,0,0,0.49530655,0.32409325,0.23228439)" />
 <path
   id="rect5"
   style="display:inline;opacity:1;fill:url(#linearGradient8);stroke-width:0.226"
   d="M 5,1 C 1,1 1,5 1,5 v 21 c 0,5 4,5 4,5 h 22 c 0,0 4,0 4,-4 V 5 c 0,0 0,-4 -4,-4 z m 0,2 h 22 c 2,0 2,2 2,2 v 22 c 0,2 -2,2 -2,2 H 5 C 5,29 3,29 3,26 V 5 C 3,5 3,3 5,3 Z" />
</svg>

<svg width="32" height="32" version="1.1" viewBox="0 0 32 32" xmlns="http://www.w3.org/2000/svg" xmlns:xlink="http://www.w3.org/1999/xlink">
<style id="current-color-scheme" type="text/css">.ColorScheme-Highlight {
        color:#3daee9;
      }</style>
<defs>
<linearGradient id="linearGradient3403" x1="6.9492" x2="11.215" y1="4.5549" y2="59.052" gradientUnits="userSpaceOnUse">
<stop style="stop-color:#32373c" offset="0"/>
<stop style="stop-color:#1a1a1a" offset=".36805"/>
<stop style="stop-color:#31363b" offset="1"/>
</linearGradient>
<linearGradient id="linearGradient20558" x1="25.802" x2="25.111" y1="20.374" y2="58.913" gradientUnits="userSpaceOnUse">
<stop style="stop-color:#3d3d3d" offset="0"/>
<stop offset=".61772"/>
<stop style="stop-color:#3d3d3d" offset="1"/>
</linearGradient>
<linearGradient id="linearGradient8" x1="17" x2="17" y1="30" y2="2" gradientUnits="userSpaceOnUse">
<stop style="stop-color:#141618" offset="0"/>
<stop style="stop-color:#686868" offset=".5319"/>
<stop style="stop-color:#31363b" offset="1"/>
</linearGradient>
<linearGradient id="linearGradient3085" x1="434.57" x2="384.57" y1="543.8" y2="503.8" gradientTransform="matrix(.66667 0 0 .7 -256.38 -350.66)" gradientUnits="userSpaceOnUse">
<stop style="stop-color:#343b40" offset="0"/>
<stop style="stop-color:#555e63" offset="1"/>
</linearGradient>
<linearGradient id="linearGradient3087" x2="-1.9607" y1="44" y2="4.1918" gradientTransform="matrix(.66667 0 0 .7 0 -.8)" gradientUnits="userSpaceOnUse">
<stop style="stop-color:#bd8d48" offset="0"/>
<stop style="stop-color:#e8b971" offset="1"/>
</linearGradient>
</defs>
<rect x="4.0612" y="2" width="25.341" height="26.09" rx="0" ry="0" style="fill:url(#linearGradient3085);stroke-width:.66667"/>
<path d="m4.0612 4h24.226v23.914l-24.226 8e-3v2.0859l24.831-0.0076 1.395-1.5883v-25.012l-1.334-1.4004h-24.892z" style="fill:url(#linearGradient3087);stroke-width:.66667"/>
<path d="m4.0605 4v0.95508h23.318v22.045h-23.318v0.91406h24.227v-23.914h-24.227z" style="color:#000000;fill-opacity:.49804;fill:#aa7f41;stroke-width:.66667"/>
<rect class="ColorScheme-Highlight" x="19" y="26" width="4" height=".99999" fill="currentColor"/>
<rect x="24" y="26" width="4" height="1" style="color:#000000;fill:#d6d6d6;stroke-width:.66667"/>
<path transform="matrix(.49531 0 0 .49531 .32409 .23228)" d="m5.4025 3.5689v56.531h52.493l2.019-2.019s-24.172 0.62135-33.141-4.2854c-10.516-5.7529-15.314-50.226-15.314-50.226z" style="fill:url(#linearGradient3403);mix-blend-mode:normal;stroke-linejoin:round;stroke-width:1.1624;stroke:url(#linearGradient20558)"/>
<path d="m5 1c-4 0-4 4-4 4v21c0 5 4 5 4 5h22s4 0 4-4v-22s0-4-4-4zm0 2h22c2 0 2 2 2 2v22c0 2-2 2-2 2h-22s-2 0-2-3v-21s0-2 2-2z" style="fill:url(#linearGradient8);stroke-width:.226"/>
</svg>
